X: 25834
T: Master Henry's
R: reel
M: 4/4
K: Gmajor
G3B AEE2|G2Bd gedB|G3B AEE2|cBAG E2DF|
G2GB AEE2|GABd gedB|G3B AEE2|cBAG E2Dd||
g2dg egde|g2dg eaaf|g2dg egdB|cBAG EGD2|
g2dg egde|g2dg eaa2|bgaf gfed|cdef gedB||

